X:1
T:Norah Link's Strathspey
C:Bruce Shawyer
L:1/8
Q:1/8=128
M:4/4
I:linebreak $
K:G
V:1 treble 
V:1
|: B>c d>c B<G (3(G/A/B/) | c>B A>G F<D D2 | B>c d>c B<G (3(G/A/B/) | c>d e<c A2 d2 |$ %4
 B>c d>c B<G (3(G/A/B/) | c>B A>G F<D (3(D/E/F/) | G>A B>G E<C C>E | D<G G>F G4 | %8
 d>c B>c d>c B>d |$ c>d e<c d2 c2 | d>c B>c d>c B>d | c>d e<c d2 f2 | g>a b>a g>f e>d | %13
 c>d e<c d2 f2 |$ g>f e>d c>B A>G | A>G F<A G4 :| %16
